X:41
T:Crowley's Reel
M:C
L:1/8
K:D
dB|AFAd B2 dB|AD (3FED AD (3FED|AFAd BABc|defg fddB|
AFAd B2 dB|AD (3FED AD (3FED|AFAd BABc|defg fdde||
faaf g2 fg|eA (3cBA eA (3cBA|df (3fef g2 fg|afge fdde|
faaf g2 fg|eA (3cBA eA (3cBA|df (3fef g2 fg|afge fddB |>|
